X: 64
T: Humours of Ennistymon [The]
T: Coppers and Brass
T: Queen of the Rushes
M: 6/8
L: 1/8
R: Jig
K: G
A|B2B GBd|cBc ABc|B2B GBd|cAG FGA|
B2B GBd|cBc ABc|ded cAF|AGF G2 :|
e|~f3 fed|cAG FGA|dgg gfg|afd d2e|
~f3 fed|cAG FGA|BdB cAF|AGF G2 :|
d|gdB gdB|ecA ecA|B2B GBd|cAG FGA
|1 gdB gdB|ecA ecA|B2B GBd|cAF G2 :|
|2 B2B GBd|cBc ABc|ded cAF|AGF G2 ||
